X:231
T:Dance
O:No 231 Wm Clarke of Feltwell 
M:6/8
L:1/8
K:G
DFA d2f| edc B2 d| A2d F2 d| AGF E2 F| DFA d2 f| edc B2 d| A2 d F2 d | ABc d2!fermata!:|/!
e^de A2 f| e^de a2f| e2 d c2 B|c3 A A2| e^de A2 f| e^de a2 f|e2 d c2 B| A2 G F2 E:||/!
D2f fef| d3 A A2| D2 f fef| g3 e e2| D2 f fef| d2 A A^GA| Bcd egd| cBA GFE|!D.C.!||

